web/img/icons/link-external.svg

<?xml version="1.0" encoding="utf-8"?>
<!-- Generated by IcoMoon.io -->
<!DOCTYPE svg PUBLIC "-//W3C//DTD SVG 1.1//EN" "http://www.w3.org/Graphics/SVG/1.1/DTD/svg11.dtd">
<svg version="1.1" xmlns="http://www.w3.org/2000/svg" xmlns:xlink="http://www.w3.org/1999/xlink" width="14" height="16" viewBox="0 0 24 32">
<path d="M20 24h-16v-15.94l4-0.060v-4h-8v24h24v-10h-4v6zM12 4l4 4-6 6 4 4 6-6 4 4v-12h-12z" fill="#999999"></path>
</svg>

<svg xmlns="http://www.w3.org/2000/svg" width="14" height="16" viewBox="0 0 24 32" class="icon-link-external"><path d="M20 24H4V8.06L8 8V4H0v24h24V18h-4v6zM12 4l4 4-6 6 4 4 6-6 4 4V4H12z" fill="#999"/></svg>
